symbolic/22x22/apps/sweethome3d.svg

<svg xmlns="http://www.w3.org/2000/svg" width="22" height="22" version="1">
 <path style="fill:#0073d6" d="M 11.054688 1 A 2.2828188 2.2739687 0 0 0 9.859375 1.3046875 L 3.140625 5.1679688 A 2.2828188 2.2739687 0 0 0 2 7.1367188 L 2 14.863281 A 2.2828188 2.2739687 0 0 0 2.5332031 16.322266 L 11 9.5 L 19.466797 16.320312 A 2.2828188 2.2739687 0 0 0 20 14.863281 L 20 7.1367188 A 2.2828188 2.2739687 0 0 0 18.857422 5.1660156 L 12.140625 1.3046875 A 2.2828188 2.2739687 0 0 0 11.054688 1 z M 19.462891 16.324219 A 2.2828188 2.2739687 0 0 1 19.228516 16.566406 A 2.2828188 2.2739687 0 0 0 19.462891 16.324219 z M 2.6875 16.488281 A 2.2828188 2.2739687 0 0 0 2.8574219 16.638672 A 2.2828188 2.2739687 0 0 1 2.6875 16.488281 z M 3.0429688 16.771484 A 2.2828188 2.2739687 0 0 0 3.140625 16.832031 A 2.2828188 2.2739687 0 0 1 3.0429688 16.771484 z"/>
 <path style="opacity:0.1;fill:#ffffff" d="M 11.053574,1.0010151 A 2.2828188,2.2739687 0 0 0 9.858565,1.3037176 L 3.1415094,5.1670494 A 2.2828188,2.2739687 0 0 0 2,7.1365656 V 7.6365697 A 2.2828188,2.2739687 0 0 1 3.1416094,5.6670535 L 9.858665,1.8037217 a 2.2828188,2.2739687 0 0 1 1.195309,-0.3027375 2.2828188,2.2739687 0 0 1 1.087909,0.3027375 l 6.717056,3.8633318 a 2.2828188,2.2739687 0 0 1 1.141509,1.9695162 V 7.1365656 A 2.2828188,2.2739687 0 0 0 18.858939,5.1670494 L 12.141883,1.3037176 A 2.2828188,2.2739687 0 0 0 11.053874,1.0010151 Z"/>
 <path style="opacity:0.2" d="m 2,14.863129 v 0.500004 a 2.2828188,2.2739687 0 0 0 1.1416094,1.968766 l 6.7170556,3.863332 a 2.2828188,2.2739687 0 0 0 2.283218,0 l 6.717056,-3.863532 a 2.2828188,2.2739687 0 0 0 1.141509,-1.969016 v -0.500004 a 2.2828188,2.2739687 0 0 1 -1.141609,1.968766 l -6.717056,3.863332 a 2.2828188,2.2739687 0 0 1 -2.283218,0 L 3.1415094,16.831245 A 2.2828188,2.2739687 0 0 1 2,14.862229 Z"/>
 <path style="opacity:0.3" d="M 11 1.0019531 A 2.2828188 2.2739687 0 0 0 9.859375 1.3046875 L 3.1425781 5.1679688 A 2.2828188 2.2739687 0 0 0 2 7.1367188 L 2 14.863281 A 2.2828188 2.2739687 0 0 0 2.5332031 16.322266 L 11 9.5 L 11 1.0019531 z"/>
 <path style="fill:#ff9e43" d="M 11.000074,9.5000852 2.532231,16.32143 a 2.2828188,2.2739687 0 0 0 0.60938,0.510746 l 6.716852,3.863313 a 2.2828188,2.2739687 0 0 0 2.283222,0 l 6.716852,-3.863313 a 2.2828188,2.2739687 0 0 0 0.607427,-0.511723 z"/>
 <path style="opacity:0.1" transform="matrix(0.48112522,0,0,0.50000411,-0.35370823,-0.71191574)" d="m 23.598706,12.423532 10.392304,6.000001 0,12 -10.392305,5.999999 -10.392305,-6 10e-7,-12 z"/>
 <path style="opacity:0.2;fill:#ffffff" d="M 11.000074,9.5000852 2.532231,16.32143 a 2.2828188,2.2739687 0 0 0 0.2783226,0.275393 l 8.1895204,-6.596734 8.188544,6.596734 a 2.2828188,2.2739687 0 0 0 0.277346,-0.27637 z"/>
 <path style="fill:#f13f3f" transform="matrix(0.48112522,0,0,0.50000411,-0.35370823,-1.2117693)" d="m 23.598706,12.423532 10.392304,6.000001 0,12 -10.392305,5.999999 -10.392305,-6 10e-7,-12 z"/>
 <path style="opacity:0.3" d="m 16.000224,8.0000727 -5,3.0000243 v 6.000049 l 5,-3.000024 z"/>
 <path style="opacity:0.1" d="m 6.0002241,8.0000727 v 6.0000493 l 4.9999999,3.000024 v -6.000049 z"/>
 <path style="opacity:0.1" d="m 6.000224,8.0000002 v 0.5 l 5,2.9999998 5,-2.9999998 v -0.5 l -5,2.9999998 z"/>
 <path style="opacity:0.2;fill:#ffffff" d="m 11.000224,5.0000002 -5,3 0.4160156,0.25 4.5839844,-2.75 4.583984,2.75 0.416016,-0.25 z"/>
</svg>

<svg xmlns="http://www.w3.org/2000/svg" width="22" height="22" version="1"><path style="fill:#0073d6" d="M11.055 1a2.283 2.274 0 0 0-1.196.305L3.141 5.168A2.283 2.274 0 0 0 2 7.137v7.726a2.283 2.274 0 0 0 .533 1.46L11 9.5l8.467 6.82A2.283 2.274 0 0 0 20 14.863V7.137a2.283 2.274 0 0 0-1.143-1.971l-6.716-3.861A2.283 2.274 0 0 0 11.055 1zm8.408 15.324a2.283 2.274 0 0 1-.234.242 2.283 2.274 0 0 0 .234-.242zm-16.776.164a2.283 2.274 0 0 0 .17.15 2.283 2.274 0 0 1-.17-.15zm.356.283a2.283 2.274 0 0 0 .098.061 2.283 2.274 0 0 1-.098-.06z"/><path style="opacity:.1;fill:#fff" d="M11.054 1.001a2.283 2.274 0 0 0-1.195.303L3.142 5.167A2.283 2.274 0 0 0 2 7.137v.5a2.283 2.274 0 0 1 1.142-1.97l6.717-3.863a2.283 2.274 0 0 1 1.195-.303 2.283 2.274 0 0 1 1.088.303l6.717 3.863A2.283 2.274 0 0 1 20 7.637v-.5a2.283 2.274 0 0 0-1.141-1.97l-6.717-3.863A2.283 2.274 0 0 0 11.054 1z"/><path style="opacity:.2" d="M2 14.863v.5a2.283 2.274 0 0 0 1.142 1.969l6.717 3.863a2.283 2.274 0 0 0 2.283 0l6.717-3.863A2.283 2.274 0 0 0 20 15.362v-.5a2.283 2.274 0 0 1-1.141 1.97l-6.717 3.863a2.283 2.274 0 0 1-2.283 0L3.142 16.83A2.283 2.274 0 0 1 2 14.862z"/><path style="opacity:.3" d="M11 1.002a2.283 2.274 0 0 0-1.14.303L3.142 5.168A2.283 2.274 0 0 0 2 7.137v7.726a2.283 2.274 0 0 0 .533 1.46L11 9.5V1.002z"/><path style="fill:#ff9e43" d="m11 9.5-8.468 6.821a2.283 2.274 0 0 0 .61.511l6.716 3.863a2.283 2.274 0 0 0 2.284 0l6.717-3.863a2.283 2.274 0 0 0 .607-.512z"/><path style="opacity:.1" transform="matrix(.48113 0 0 .5 -.354 -.712)" d="m23.599 12.424 10.392 6v12l-10.392 6-10.393-6v-12z"/><path style="opacity:.2;fill:#fff" d="m11 9.5-8.468 6.821a2.283 2.274 0 0 0 .279.276L11 10l8.188 6.597a2.283 2.274 0 0 0 .277-.277z"/><path style="fill:#f13f3f" transform="matrix(.48113 0 0 .5 -.354 -1.212)" d="m23.599 12.424 10.392 6v12l-10.392 6-10.393-6v-12z"/><path style="opacity:.3" d="m16 8-5 3v6l5-3z"/><path style="opacity:.1" d="M6 8v6l5 3v-6z"/><path style="opacity:.1" d="M6 8v.5l5 3 5-3V8l-5 3z"/><path style="opacity:.2;fill:#fff" d="M11 5 6 8l.416.25L11 5.5l4.584 2.75L16 8z"/></svg>
